svgs/sharp-regular/inbox.svg

<svg xmlns="http://www.w3.org/2000/svg" viewBox="0 0 512 512"><!--! Font Awesome Pro 6.6.0 by @fontawesome - https://fontawesome.com License - https://fontawesome.com/license (Commercial License) Copyright 2024 Fonticons, Inc. --><path d="M48 336l0 96 416 0 0-96-81.2 0-25.4 50.7L350.8 400 336 400l-160 0-14.8 0-6.6-13.3L129.2 336 48 336zm406.5-48l-52-208-293 0-52 208 86.5 0 14.8 0 6.6 13.3L190.8 352l130.3 0 25.4-50.7 6.6-13.3 14.8 0 86.5 0zM0 432L0 320 72 32l368 0 72 288 0 112 0 48-48 0L48 480 0 480l0-48z"/></svg>

<svg xmlns="http://www.w3.org/2000/svg" viewBox="0 0 512 512"><!--! Font Awesome Pro 6.4.0 by @fontawesome - https://fontawesome.com License - https://fontawesome.com/license (Commercial License) Copyright 2023 Fonticons, Inc. --><path d="M48 336v96H464V336H382.8l-25.4 50.7L350.8 400H336 176 161.2l-6.6-13.3L129.2 336H48zm406.5-48l-52-208h-293l-52 208H144h14.8l6.6 13.3L190.8 352H321.2l25.4-50.7 6.6-13.3H368h86.5zM0 432V320L72 32H440l72 288V432v48H464 48 0V432z"/></svg>
